X: 113105
Q: "Strathspey."
M: C
L: 1/16
K: D
|:\
vD3vF uA3uB (dF3) E4 | D3F A3B d3AB3A |\
a3da3b a3fe3f | a3da3b a3ba3f |
a3da3b a3fe3f | d3AB3A d3A B3b |\
a3da3b a3fe3f | a3da3b a3ba3f |\
vg3ua bagf e3de3f | d3ef3e d3AB3d |]


